X: 1972
T: Arthur Muise
R: reel
M: 4/4
K: Amixolydian
Ad|cA A/A/A F/A3/2ED|CA,CE Ace=c|B(G~G2)(E/F/G) DG|B,G,B,D GBdB|
cA A/A/A FAED|CA,CE Aced|dcde (f/^g/a)T gf|egdB A/A/A:|
K:Ador
(e/^f/g)|aA A/A/A {AB}c2 BA|aA A/A/A cdec|BG G/G/G Tg2 fg|ecdc BGGg|
aA A/A/A{AB}c2BA|aA A/A/A cde^c|d^cde f/^g/a gf|e^cdB A/A/A:|

